X: 59
T: Largo's Fairy Dance    [D]
T: the Fairy Reel
T: Old Molly Hare
C: Nathaniel Gow
O: 1809
Z: John Chambers <jc:trillian.mit.edu>
L: 1/8
M: C|
N: Many versions from all over the British Isles and North America.
N: Nath. Gow (variations by Skinner)
N: H&C 88
N: OTDT p.71
N: BSFC I-24 and III-16 and IV-5 and V-5
N: Hunter 219
N: Fairy Dance in Skye 57
N: Bain 7 (he thinks it's trad Shetland)
N: Varella 78
N: Gow 268 but C
D: Fiddlers 3+2 tape A6
K: D
de \
|: "D"f2fd f2fd | f2fd "A7"cAeA | "D"f2fd "G"gfed | "A7"cABc "D"defg :|
|: "D"a2af "G"b2ba | "Em"g2ge "A7"a2ag | "D"f2fd "G"gfed |1 "A7"cABc "D"defg :|2 "A7"cABc "D"d2 |]

%%sep 1 1 500

